X:23
T:Polonäs i Dm efter Daniel Danielsson
B:Daniel Danielssons notbok, nr 23
B:http://www.smus.se/earkiv/fmk/browselarge.php?lang=sw&katalogid=MMD+47&bildnr=00008
O:Södra gården, Härjedalen
Z:Nils L
R:Slängpolska
M:3/4
L:1/16
K:Dm
A2Bc d4 c4 | d2e2 f4 e4 | f2ef g2f2 e2d2 | c2B2 A2G2 F2D2 | A,4 D4 C4 | A,4 F4 A,4 |
E2C2 F2D2 E2C2 | A,8 D4 :: f4 c4 c2d2 | c2B2 A2B2 A2G2 | F2G2 A2B2 c2A2 | 
B2AB G2AB A4 | A,4 D4 C4 | A,4 F4 E4 | F2D2 G2E2 F2D2 | A,4 D8 :|

